static/assets/images/exchanges/thena.svg

<svg width="288" height="256" viewBox="0 0 288 256" fill="none" xmlns="http://www.w3.org/2000/svg">
<path d="M288 0V31.8439H256.37C238.682 31.8439 224.324 46.413 224.324 63.8959V224.156H191.861V31.6358H159.815V256H127.977V31.8439H96.1387V223.948H63.8844V63.8959C63.8844 46.2049 49.526 31.8439 31.8382 31.8439H0V0H288Z" fill="#F565FA"/>
</svg>

<svg xmlns="http://www.w3.org/2000/svg" fill="none" viewBox="0 0 288 256"><path fill="#F565FA" d="M288 0v31.844h-31.63c-17.688 0-32.046 14.569-32.046 32.052v160.26h-32.463V31.636h-32.046V256h-31.838V31.844H96.139v192.104H63.884V63.896c0-17.691-14.358-32.052-32.046-32.052H0V0z"/></svg>
